Papirus-Dark/22x22/actions/text-wiki.svg

<svg xmlns="http://www.w3.org/2000/svg" width="22" height="22" version="1.1">
 <defs>
  <style id="current-color-scheme" type="text/css">
   .ColorScheme-Text { color:#dfdfdf; } .ColorScheme-Highlight { color:#4285f4; }
  </style>
 </defs>
 <path style="fill:currentColor" class="ColorScheme-Text" d="m 13.491322,6.0002808 c -0.568651,-3.555e-4 -1.242151,0.00195 -1.656252,0.00445 l -0.04085,0.026905 v 0.2867404 c 0,0.03495 0.01515,0.059425 0.0454,0.08064 0.0308,0.022365 0.06161,0.03584 0.0953,0.03584 l 0.131595,0.013475 c 0.338621,0.013775 0.498061,0.1017601 0.544501,0.1568152 0.08074,0.09749 0.1186,0.2057302 -0.07714,0.6272505 l -1.170752,2.302854 -1.057301,-2.137104 C 9.958488,6.7151465 9.873833,6.5018962 10.396573,6.4617462 l 0.208736,-0.026905 c 0.100485,0 0.149745,-0.034805 0.149745,-0.1030501 V 6.0316158 l -0.07714,-0.026905 c 0,0 -1.969653,0.00345 -2.854254,0.00445 l -0.04085,0.026905 v 0.3001804 c 0,0.0671 0.07166,0.085265 0.208735,0.1030451 0.489641,0.06366 0.477586,0.1138702 0.962001,1.0618016 0.0726,0.14222 0.285876,0.569 0.285876,0.569 l 1.102651,2.1415531 c 0,0 0.238315,0.520151 0.322181,0.703401 l -1.601802,3.154104 -0.09076,-0.02241 c 0,0 -2.487953,-5.1805071 -3.208154,-6.9130091 -0.07493,-0.1794999 -0.10891,-0.3122551 -0.10891,-0.3942652 0,-0.1760502 0.159221,-0.2690703 0.481001,-0.2822553 l 0.37663,-0.01792 c 0.09932,0 0.149746,-0.037915 0.149746,-0.1164901 V 6.0405458 l -0.0363,-0.03135 c 0,0 -2.978204,-0.00345 -3.593905,0 L 3,6.0405458 v 0.2957004 c 0,0.05391 0.06538,0.088135 0.204195,0.1030501 0.378121,0.020045 0.629101,0.08 0.748701,0.1792053 0.11907,0.1003601 0.245655,0.3530804 0.412936,0.7482013 0.904351,2.144802 2.826053,5.9745071 3.761754,8.1540101 0.269506,0.595251 0.605201,0.688051 1.016452,-0.01792 0.443345,-0.811901 1.218801,-2.379603 1.846852,-3.660405 0.0091,-0.12425 0.0091,0.115106 0.12252,0.04033 0.586451,1.275302 1.294302,2.810504 1.688052,3.611105 0.304936,0.621101 0.650301,0.680851 1.002852,0.01792 0.921201,-2.022053 3.616554,-8.1050101 3.616554,-8.1050101 0.116745,-0.298786 0.27702,-0.527551 0.485536,-0.6944512 0.207935,-0.1657302 0.5287,-0.2588503 0.962001,-0.2777754 C 18.956695,6.4345063 19,6.3954563 19,6.3180212 V 6.0312808 l -0.0318,-0.031395 h -3.308004 l -0.04085,0.031395 v 0.2867404 c 0,0.033815 0.01515,0.059425 0.0454,0.08064 0.0308,0.022365 0.06161,0.03584 0.0953,0.03584 l 0.2768,0.013475 c 0.339206,0.013775 0.431411,0.080245 0.562701,0.1926552 0.13069,0.1152601 0.14703,0.3105004 0.0454,0.5869005 l -2.926854,6.8595091 -0.11344,-0.0314 -1.860452,-3.750005 c 0.002,-0.0035 0.0454,-0.08961 0.0454,-0.08961 l 1.520152,-2.8091041 c 0.177155,-0.296485 0.34908,-0.5622002 0.43562,-0.6855004 0.158571,-0.2253753 0.247361,-0.2666653 0.680651,-0.2867354 0.08828,0 0.131595,-0.037915 0.131595,-0.1164901 V 6.0359408 l -0.0318,-0.031395 c 0,0 -0.46597,-0.00395 -1.034601,-0.00445 z"/>
</svg>

<svg xmlns="http://www.w3.org/2000/svg" width="22" height="22" version="1.1">
 <defs>
  <style id="current-color-scheme" type="text/css">
   .ColorScheme-Text { color:#dfdfdf; } .ColorScheme-Highlight { color:#4285f4; }
  </style>
 </defs>
 <path style="fill:currentColor" class="ColorScheme-Text" d="M 11.835,6.0045 11.794,6.0314 V 6.3182 C 11.794,6.3531 11.809,6.3776 11.84,6.3988 11.87,6.4212 11.901,6.4347 11.935,6.4347 L 12.067,6.4481 C 12.405,6.4619 12.565,6.5499 12.611,6.6049 12.692,6.7024 12.73,6.8107 12.534,7.2327 L 11.363,9.5347 10.306,7.3977 C 9.9585,6.7149 9.8738,6.5017 10.397,6.4615 L 10.605,6.4346 C 10.706,6.4346 10.755,6.3998 10.755,6.3316 V 6.0314 L 10.678,6.0045 7.8237,6.009 7.7828,6.0359 V 6.336 C 7.7828,6.4031 7.8545,6.4213 7.9915,6.4391 8.4812,6.5028 8.4691,6.553 8.9535,7.5007 L 10.664,10.915 9.0625,14.069 8.9717,14.047 5.7635,7.1337 C 5.6886,6.954 5.6546,6.8213 5.6546,6.7393 5.6546,6.5632 5.8138,6.4702 6.1356,6.457 L 6.5123,6.4391 C 6.6116,6.4391 6.662,6.4012 6.662,6.3226 V 6.0403 L 6.6257,6.009 H 3.0318 L 3,6.0403 V 6.336 C 3,6.39 3.0654,6.4242 3.2042,6.4391 3.5823,6.4591 3.8333,6.5191 3.9529,6.6183 4.072,6.7187 4.3658,7.3667 4.3658,7.3667 L 8.1276,15.521 C 8.3971,16.116 8.7328,16.209 9.144,15.503 L 10.991,11.843 C 11,11.718 11.113,11.883 11.113,11.883 L 12.802,15.494 C 13.106,16.115 13.452,16.175 13.804,15.512 L 17.421,7.4067 C 17.538,7.1077 17.698,6.879 17.906,6.7121 18.114,6.5464 18.435,6.4532 18.868,6.4343 18.957,6.4343 19,6.3953 19,6.3178 V 6.0311 L 18.968,5.9997 H 15.66 L 15.619,6.0311 V 6.3178 C 15.619,6.3516 15.634,6.3772 15.665,6.3985 15.696,6.4208 15.726,6.4343 15.76,6.4343 L 16.037,6.4478 C 16.376,6.4616 16.468,6.528 16.6,6.6404 16.73,6.7557 16.747,6.9509 16.645,7.2277 L 13.718,14.087 13.605,14.056 11.744,10.306 13.745,6.7212 C 13.904,6.4958 13.993,6.4546 14.426,6.4345 14.514,6.4345 14.558,6.3966 14.558,6.318 V 6.0357 L 14.526,6.0043 Z"/>
</svg>
